X: 35921
T: Sandy's Wedding
R: waltz
M: 3/4
K: Gmajor
c|:B3G cB|A4 BA|GEc2B2|B2A2c2|
Bc d2F2|GAB2D2|E2c2B2|1 A4c2:|2 A3G2||
|:DGG2FG|ADD4|EBB3d|dFF4|
[1 E2cB AG|BGD4|E2 cB AG|GA AG GF:|
[2 e2d2c2|d2B3d|dcE3d|dcF4||
FGd3G|FG fg d2|e2c2B2|B3cA2|
FGd3G|FG fg d2|e2g2ge|ga ag gf|
fgd3g|fgd4|e2c2B2|B3cA2|
B2d2F2|G3AB2|E2c2B2|A6||

